web/abstruse/src/assets/images/avatars/avatar_23.svg

<svg width="200px" height="260px" viewBox="0 0 200 260" version="1.1" xmlns="http://www.w3.org/2000/svg" xmlns:xlink="http://www.w3.org/1999/xlink">
    <!-- Generator: Sketch 50.2 (55047) - http://www.bohemiancoding.com/sketch -->
    <desc>Created with Sketch.</desc>
    <defs>
        <path d="M124,144.610951 L124,163 L128,163 C167.764502,163 200,195.235498 200,235 L200,244 L0,244 L0,235 C-4.86974701e-15,195.235498 32.235498,163 72,163 L76,163 L76,144.610951 C58.7626345,136.422372 46.3722246,119.687011 44.3051388,99.8812385 C38.4803105,99.0577866 34,94.0521096 34,88 L34,74 C34,68.0540074 38.3245733,63.1180731 44,62.1659169 L44,56 C44,25.072054 69.072054,5.68137151e-15 100,0 C130.927946,-5.68137151e-15 156,25.072054 156,56 L156,62.1659169 C161.675427,63.1180731 166,68.0540074 166,74 L166,88 C166,94.0521096 161.51969,99.0577866 155.694861,99.8812385 C153.627775,119.687011 141.237365,136.422372 124,144.610951 Z" id="path-1"></path>
        <path d="M165.960472,29.2949161 C202.936473,32.3249982 232,63.2942856 232,101.051724 L232,110 L32,110 L32,101.051724 C32,62.9525631 61.591985,31.7649812 99.0454063,29.2195264 C99.0152598,29.5931145 99,29.9692272 99,30.3476251 C99,42.2107177 113.998461,51.8276544 132.5,51.8276544 C151.001539,51.8276544 166,42.2107177 166,30.3476251 C166,29.9946691 165.986723,29.6437014 165.960472,29.2949161 Z" id="path-3"></path>
        <rect id="path-5" x="0" y="0" width="264" height="280"></rect>
        <path d="M148.859344,69 L72.058097,69 L69.2529753,47.5561285 L65.3735517,69 L37.1406562,69 C37.0474121,70.3212062 37,71.6550662 37,73 L37,111 C37,133.339168 50.0804213,152.623239 69,161.610951 L69,170.317444 C50.8544902,171.815807 33.2789946,174.335033 23,177 C13.047523,163.439362 0.115574613,150.800081 4.92293245e-13,126 C-0.0850232975,107.014914 30.3189583,28.7950013 41,16 C48.9231015,6.50878211 68.6952966,0.550643437 93.0001685,1 C117.30504,1.44935656 137.861928,4.81215989 146.000169,15 C158.324059,30.4276364 186.085192,107.014914 186.000169,126 C185.884594,150.800081 172.952646,163.439362 163.000169,177 C152.721153,174.335027 135.145605,171.815797 117,170.317435 L117,161.610951 C135.919579,152.623239 149,133.339168 149,111 L149,73 C149,71.6550662 148.952588,70.3212062 148.859344,69 Z" id="path-7"></path>
    </defs>
    <g id="Changelog" stroke="none" stroke-width="1" fill="none" fill-rule="evenodd">
        <g transform="translate(-273.000000, -2501.000000)" id="Avataaar/Default">
            <g transform="translate(241.000000, 2481.000000)">
                <g id="Body" stroke-width="1" fill-rule="evenodd" transform="translate(32.000000, 36.000000)">
                    <mask id="mask-2" fill="white">
                        <use xlink:href="#path-1"></use>
                    </mask>
                    <use fill="#D0C6AC" xlink:href="#path-1"></use>
                    <g id="Skin/👶🏽-03-Brown" mask="url(#mask-2)" fill="#D08B5B">
                        <g transform="translate(-32.000000, 0.000000)" id="Color">
                            <rect x="0" y="0" width="264" height="244"></rect>
                        </g>
                    </g>
                    <path d="M156,94 L156,102 C156,132.927946 130.927946,158 100,158 C69.072054,158 44,132.927946 44,102 L44,94 C44,124.927946 69.072054,150 100,150 C130.927946,150 156,124.927946 156,94 Z" id="Neck-Shadow" fill-opacity="0.100000001" fill="#000000" mask="url(#mask-2)"></path>
                </g>
                <g id="Clothing/Shirt-Crew-Neck" transform="translate(0.000000, 170.000000)">
                    <mask id="mask-4" fill="white">
                        <use xlink:href="#path-3"></use>
                    </mask>
                    <use id="Clothes" fill="#E6E6E6" fill-rule="evenodd" xlink:href="#path-3"></use>
                    <g id="Color/Palette/Gray-01" mask="url(#mask-4)" fill="#E6E6E6" fill-rule="evenodd">
                        <rect id="🖍Color" x="0" y="0" width="264" height="110"></rect>
                    </g>
                    <g id="Shadowy" opacity="0.599999964" stroke-width="1" fill-rule="evenodd" mask="url(#mask-4)" fill="#000000" fill-opacity="0.16">
                        <g transform="translate(92.000000, 4.000000)" id="Hola-👋🏼">
                            <ellipse cx="40.5" cy="27.8476251" rx="39.6351047" ry="26.9138272"></ellipse>
                        </g>
                    </g>
                </g>
                <g id="Face" stroke-width="1" fill-rule="evenodd" transform="translate(76.000000, 82.000000)" fill="#000000">
                    <g id="Mouth/Default" transform="translate(2.000000, 52.000000)" fill-opacity="0.699999988">
                        <path d="M40,15 C40,22.7319865 46.2680135,29 54,29 C61.7319865,29 68,22.7319865 68,15" id="Mouth"></path>
                    </g>
                    <g id="Nose/Default" transform="translate(28.000000, 40.000000)" fill-opacity="0.16">
                        <path d="M16,8 C16,12.418278 21.372583,16 28,16 C34.627417,16 40,12.418278 40,8" id="Nose"></path>
                    </g>
                    <g id="Eyes/Default-😀" transform="translate(0.000000, 8.000000)" fill-opacity="0.599999964">
                        <circle id="Eye" cx="30" cy="22" r="6"></circle>
                        <circle id="Eye" cx="82" cy="22" r="6"></circle>
                    </g>
                    <g id="Eyebrow/Outline/Default" fill-opacity="0.599999964">
                        <g id="I-Browse" transform="translate(12.000000, 6.000000)">
                            <path d="M3.63024536,11.1585767 C7.54515501,5.64986673 18.2779197,2.56083721 27.5230268,4.83118046 C28.5957248,5.0946055 29.6788665,4.43856013 29.9422916,3.36586212 C30.2057166,2.2931641 29.5496712,1.21002236 28.4769732,0.94659732 C17.7403633,-1.69001789 5.31209962,1.88699832 0.369754639,8.84142326 C-0.270109626,9.74178291 -0.0589363917,10.9903811 0.84142326,11.6302454 C1.74178291,12.2701096 2.9903811,12.0589364 3.63024536,11.1585767 Z" id="Eyebrow" fill-rule="nonzero"></path>
                            <path d="M61.6302454,11.1585767 C65.545155,5.64986673 76.2779197,2.56083721 85.5230268,4.83118046 C86.5957248,5.0946055 87.6788665,4.43856013 87.9422916,3.36586212 C88.2057166,2.2931641 87.5496712,1.21002236 86.4769732,0.94659732 C75.7403633,-1.69001789 63.3120996,1.88699832 58.3697546,8.84142326 C57.7298904,9.74178291 57.9410636,10.9903811 58.8414233,11.6302454 C59.7417829,12.2701096 60.9903811,12.0589364 61.6302454,11.1585767 Z" id="Eyebrow" fill-rule="nonzero" transform="translate(73.000154, 6.039198) scale(-1, 1) translate(-73.000154, -6.039198) "></path>
                        </g>
                    </g>
                </g>
                <g id="Top" stroke-width="1" fill-rule="evenodd">
                    <mask id="mask-6" fill="white">
                        <use xlink:href="#path-5"></use>
                    </mask>
                    <g id="Mask"></g>
                    <g id="Top/Long-Hair/Mia-Wallace" mask="url(#mask-6)">
                        <g transform="translate(-1.000000, 0.000000)">
                            <path d="M69.0330562,76.212888 C81.9708809,43.1292208 95.6458945,26.5873873 110.058097,26.5873873 C110.596882,26.5873873 139.311316,26.3494141 158.112657,26.226792 C178.767149,35.5853581 193,55.3036503 193,78.114622 L193,93 L110.058097,93 L107.252975,69.820435 L103.373552,93 L69,93 L69,78.114622 C69,77.478246 69.0110772,76.844277 69.0330621,76.2128728 L69.0330562,76.212888 Z" id="Shadow" fill-opacity="0.16" fill="#000000" fill-rule="evenodd"></path>
                            <g id="Hair" stroke-width="1" fill="none" fill-rule="evenodd" transform="translate(40.000000, 19.000000)">
                                <mask id="mask-8" fill="white">
                                    <use xlink:href="#path-7"></use>
                                </mask>
                                <use id="Combined-Shape" fill="#E6E6E6" xlink:href="#path-7"></use>
                                <g id="Color/Hair/Black" mask="url(#mask-8)" fill="#2C1B18">
                                    <g transform="translate(-40.000000, -19.000000)" id="Color">
                                        <rect x="0" y="0" width="266" height="280"></rect>
                                    </g>
                                </g>
                            </g>
                            <g id="Facial-Hair/-Blank" fill="none" transform="translate(49.000000, 72.000000)"></g>
                            <g id="Top/_Resources/Blank" fill="none" transform="translate(62.000000, 85.000000)"></g>
                        </g>
                    </g>
                </g>
            </g>
        </g>
    </g>
</svg>

<svg width="200" height="260" xmlns="http://www.w3.org/2000/svg" xmlns:xlink="http://www.w3.org/1999/xlink"><defs><path d="M124 144.611V163h4c39.765 0 72 32.235 72 72v9H0v-9c0-39.765 32.235-72 72-72h4v-18.389c-17.237-8.189-29.628-24.924-31.695-44.73C38.48 99.058 34 94.052 34 88V74c0-5.946 4.325-10.882 10-11.834V56c0-30.928 25.072-56 56-56s56 25.072 56 56v6.166c5.675.952 10 5.888 10 11.834v14c0 6.052-4.48 11.058-10.305 11.881-2.067 19.806-14.458 36.541-31.695 44.73z" id="a"/><path d="M165.96 29.295c36.976 3.03 66.04 34 66.04 71.757V110H32v-8.948c0-38.1 29.592-69.287 67.045-71.832-.03.373-.045.75-.045 1.128 0 11.863 14.998 21.48 33.5 21.48 18.502 0 33.5-9.617 33.5-21.48 0-.353-.013-.704-.04-1.053z" id="c"/><path id="e" d="M0 0h264v280H0z"/><path d="M148.86 69H72.057l-2.805-21.444L65.373 69H37.142A56.812 56.812 0 0037 73v38c0 22.34 13.08 41.623 32 50.611v8.706c-18.146 1.499-35.721 4.018-46 6.683-9.952-13.56-22.884-26.2-23-51-.085-18.985 30.319-97.205 41-110C48.923 6.509 68.695.55 93 1c24.305.45 44.862 3.812 53 14 12.324 15.428 40.085 92.015 40 111-.115 24.8-13.047 37.44-23 51-10.279-2.665-27.854-5.184-46-6.683v-8.706c18.92-8.988 32-28.272 32-50.611V73c0-1.345-.047-2.679-.14-4z" id="g"/></defs><g fill="none" fill-rule="evenodd"><g transform="translate(0 16)"><mask id="b" fill="#fff"><use xlink:href="#a"/></mask><use fill="#D0C6AC" xlink:href="#a"/><g mask="url(#b)" fill="#D08B5B"><path d="M-32 0h264v244H-32z"/></g><path d="M156 94v8c0 30.928-25.072 56-56 56s-56-25.072-56-56v-8c0 30.928 25.072 56 56 56s56-25.072 56-56z" fill-opacity=".1" fill="#000" mask="url(#b)"/></g><g transform="translate(-32 150)"><mask id="d" fill="#fff"><use xlink:href="#c"/></mask><use fill="#E6E6E6" xlink:href="#c"/><g mask="url(#d)" fill="#E6E6E6"><path d="M0 0h264v110H0z"/></g><g opacity=".6" mask="url(#d)" fill="#000" fill-opacity=".16"><ellipse cx="40.5" cy="27.848" rx="39.635" ry="26.914" transform="translate(92 4)"/></g></g><g fill="#000"><path d="M86 129c0 7.732 6.268 14 14 14s14-6.268 14-14" fill-opacity=".7"/><path d="M88 110c0 4.418 5.373 8 12 8s12-3.582 12-8" fill-opacity=".16"/><g transform="translate(44 70)" fill-opacity=".6"><circle cx="30" cy="22" r="6"/><circle cx="82" cy="22" r="6"/></g><g fill-rule="nonzero" fill-opacity=".6"><path d="M59.63 79.159c3.915-5.51 14.648-8.598 23.893-6.328a2 2 0 00.954-3.884c-10.737-2.637-23.165.94-28.107 7.894a2 2 0 003.26 2.318zM140.37 79.159c-3.915-5.51-14.648-8.598-23.893-6.328a2 2 0 01-.954-3.884c10.737-2.637 23.165.94 28.108 7.894a2 2 0 01-3.26 2.318z"/></g></g><g transform="translate(-32 -20)"><mask id="f" fill="#fff"><use xlink:href="#e"/></mask><g mask="url(#f)"><path d="M68.033 76.213c12.938-33.084 26.613-49.626 41.025-49.626.539 0 29.253-.238 48.055-.36C177.767 35.585 192 55.304 192 78.115V93h-82.942l-2.805-23.18-3.88 23.18H68V78.115c0-.637.011-1.27.033-1.902z" fill-opacity=".16" fill="#000"/><g transform="translate(39 19)"><mask id="h" fill="#fff"><use xlink:href="#g"/></mask><use fill="#E6E6E6" xlink:href="#g"/><g mask="url(#h)" fill="#2C1B18"><path d="M-40-19h266v280H-40z"/></g></g></g></g></g></svg>
